X: 17200
T: Henry Reed's Breakdown
R: reel
M: 4/4
K: Amajor
e/f/g|:a2g2 ed c2|A3 A3 e/f/g|a2g2 edcd|e3 e3 e/f/g|
a2g2 ed c2|A4 cAc2|E4 GE G2|1 A3 A3 e/f/g:|2 A3 A3 B/c/d||
|:e2d2 cA c2|A3 A3 B/c/d|e2d2 =cA c2|E3 E3 B/c/d|
e2d2 cA c2|A4 cA c2|E4 GE G2|1 A3 A3 B/c/d:|2 A3 A3 E/F/G||
|:A2G2 ED C2|A,3 A,3 E/F/G|A2G2 EDCD|E3 E3 E/F/G|
A2G2 ED C2|A,4 =CA,C2|E4 GE G2|1 A3 A3 E/F/G:|2 A3 A3 e/f/g||

